app/dist/common/images/ieit-systems-co-lt.svg

<svg height="18" viewBox="0 0 18 18" width="18" xmlns="http://www.w3.org/2000/svg"><path d="m0 0h18v18h-18z" fill="#f0f3fa"/><path d="m3 7h1.3v4h-1.3zm2.9 3.98h3.16l.16-.65h-2.76c-.1 0-.16-.15-.16-.26v-.74h2.52l.16-.66h-2.68v-.77c0-.11.02-.24.16-.24h2.6l.16-.66h-3.32a.88.88 0 0 0 -.63.26.84.84 0 0 0 -.27.62v2.22c0 .24.09.45.27.62.17.18.39.26.63.26zm5.1-3.98h-1.31v4h1.31zm2 4h1.38v-3.33h1.46l.16-.67h-4.4l-.15.67h1.55z" fill="#1e5cab"/></svg>

<!-- by TradingView --><svg width="18" height="18" viewBox="0 0 18 18" xmlns="http://www.w3.org/2000/svg"><path fill="#F0F3FA" d="M0 0h18v18H0z"/><path d="M3 7h1.3v4H3V7Zm2.9 3.98h3.16l.16-.65H6.46c-.1 0-.16-.15-.16-.26v-.74h2.52l.16-.66H6.3V7.9c0-.11.02-.24.16-.24h2.6L9.22 7H5.9a.88.88 0 0 0-.63.26.84.84 0 0 0-.27.62v2.22c0 .24.09.45.27.62.17.18.39.26.63.26ZM11 7H9.69v4H11V7Zm2 4h1.38V7.67h1.46L16 7h-4.4l-.15.67H13V11Z" fill="#1E5CAB"/></svg>
